icons/Overlay_padlock.svg

<?xml version="1.0" encoding="UTF-8" standalone="no"?>
<svg
   version="1.1"
   width="64"
   height="64"
   color-interpolation="linearRGB"
   id="svg28"
   sodipodi:docname="Overlay_padlock.svg"
   inkscape:version="1.1 (ce6663b3b7, 2021-05-25)"
   xmlns:inkscape="http://www.inkscape.org/namespaces/inkscape"
   xmlns:sodipodi="http://sodipodi.sourceforge.net/DTD/sodipodi-0.dtd"
   xmlns:xlink="http://www.w3.org/1999/xlink"
   xmlns="http://www.w3.org/2000/svg"
   xmlns:svg="http://www.w3.org/2000/svg">
  <defs
     id="defs32">
    <linearGradient
       inkscape:collect="always"
       xlink:href="#gradient0-3"
       id="linearGradient897"
       gradientUnits="userSpaceOnUse"
       x1="102.6"
       y1="8.5"
       x2="102.74"
       y2="47.07" />
    <linearGradient
       id="gradient0-3"
       gradientUnits="userSpaceOnUse"
       x1="102.6"
       y1="8.5"
       x2="102.74"
       y2="47.07">
      <stop
         offset="0"
         stop-color="#face79"
         id="stop6-6" />
      <stop
         offset="1"
         stop-color="#bc4105"
         id="stop8-7" />
    </linearGradient>
    <linearGradient
       inkscape:collect="always"
       xlink:href="#gradient1-5"
       id="linearGradient899"
       gradientUnits="userSpaceOnUse"
       x1="103.24"
       y1="12.68"
       x2="103.39"
       y2="55.34" />
    <linearGradient
       id="gradient1-5"
       gradientUnits="userSpaceOnUse"
       x1="103.24"
       y1="12.68"
       x2="103.39"
       y2="55.34">
      <stop
         offset="0"
         stop-color="#ffffff"
         id="stop13" />
      <stop
         offset="1"
         stop-color="#8e8e8e"
         id="stop15-3" />
    </linearGradient>
  </defs>
  <sodipodi:namedview
     id="namedview30"
     pagecolor="#ffffff"
     bordercolor="#666666"
     borderopacity="1.0"
     inkscape:pageshadow="2"
     inkscape:pageopacity="0.0"
     inkscape:pagecheckerboard="0"
     showgrid="false"
     inkscape:zoom="13.046875"
     inkscape:cx="32"
     inkscape:cy="38.17006"
     inkscape:window-width="1920"
     inkscape:window-height="1017"
     inkscape:window-x="0"
     inkscape:window-y="0"
     inkscape:window-maximized="1"
     inkscape:current-layer="svg28" />
  <g
     id="g64"
     transform="matrix(1.0184262,0,0,1.0184262,-1.105572,-0.8107528)">
    <path
       style="fill:none;stroke:#000000;stroke-width:4"
       d="m 40,56 c -4,-4 0,-12 0,-12 h 20 c 0,0 4,8 0,12 -4,4 -16,4 -20,0 z"
       transform="matrix(1,0,0,0.9473,0,3.2114)"
       id="path38" />
    <path
       style="fill:none;stroke:#000000;stroke-width:8"
       d="m 44,48 v -8 c 0,0 0,-4 6,-4 6,0 6,4 6,4 v 8 z"
       id="path40" />
    <radialGradient
       id="radialGradient48"
       gradientUnits="userSpaceOnUse"
       cx="0"
       cy="0"
       r="64"
       gradientTransform="matrix(0.1562,0,0,0.1562,51,43)">
      <stop
         offset="0.4178"
         stop-color="#a8a8a8"
         id="stop42" />
      <stop
         offset="0.5898"
         stop-color="#272727"
         id="stop44" />
      <stop
         offset="0.9831"
         stop-color="#d0d0d0"
         id="stop46" />
    </radialGradient>
    <path
       style="fill:none;stroke:url(#linearGradient897);stroke-width:4"
       d="m 44,48 v -8 c 0,0 0,-4 6,-4 6,0 6,4 6,4 v 8 z"
       id="path50" />
    <linearGradient
       id="linearGradient56"
       gradientUnits="userSpaceOnUse"
       x1="41.810001"
       y1="8.6999998"
       x2="76.730003"
       y2="39.41">
      <stop
         offset="0.45"
         stop-color="#f6ed5a"
         id="stop52" />
      <stop
         offset="1"
         stop-color="#555400"
         id="stop54" />
    </linearGradient>
    <path
       style="fill:url(#linearGradient899)"
       d="m 40,56 c -4,-4 0,-12 0,-12 h 20 c 0,0 4,8 0,12 -4,4 -16,4 -20,0 z"
       id="path58" />
    <path
       style="fill:#000000"
       d="m 50,49 c -1,0 -2,1 -2,2 0,1 0,1 1,2 0,2 0,3 1,3 1,0 1,-1 1,-3 1,-1 1,-1 1,-2 0,-1 -1,-2 -2,-2 z"
       id="path60" />
    <path
       style="fill:none;stroke:#000000;stroke-width:1"
       d="M 40,44 H 60"
       id="path62" />
  </g>
</svg>

<?xml version="1.0" encoding="UTF-8" standalone="yes"?>
<svg version="1.1" width="64" height="64" color-interpolation="linearRGB"
     xmlns:svg="http://www.w3.org/2000/svg" xmlns="http://www.w3.org/2000/svg">
 <g>
  <path style="fill:none; stroke:#000000; stroke-width:4"
        d="M40 56C36 52 40 44 40 44H60C60 44 64 52 60 56C56 60 44 60 40 56z"
        transform="matrix(1,0,0,0.9473,0,3.2114)"
  />
  <path style="fill:none; stroke:#000000; stroke-width:8"
        d="M44 48V40C44 40 44 36 50 36C56 36 56 40 56 40V48H44z"
        transform="matrix(1,0,0,1,0,0)"
  />
  <radialGradient id="gradient0" gradientUnits="userSpaceOnUse" cx="0" cy="0" r="64" gradientTransform="matrix(0.1562,0,0,0.1562,51,43)">
   <stop offset="0.4178" stop-color="#a8a8a8"/>
   <stop offset="0.5898" stop-color="#272727"/>
   <stop offset="0.9831" stop-color="#d0d0d0"/>
  </radialGradient>
  <path style="fill:none; stroke:url(#gradient0); stroke-width:4"
        d="M44 48V40C44 40 44 36 50 36C56 36 56 40 56 40V48H44z"
  />
  <linearGradient id="gradient1" gradientUnits="userSpaceOnUse" x1="41.81" y1="8.7" x2="76.73" y2="39.41">
   <stop offset="0.45" stop-color="#f6ed5a"/>
   <stop offset="1" stop-color="#555400"/>
  </linearGradient>
  <path style="fill:url(#gradient1)"
        d="M40 56C36 52 40 44 40 44H60C60 44 64 52 60 56C56 60 44 60 40 56z"
  />
  <path style="fill:#000000"
        d="M50 49C49 49 48 50 48 51C48 52 48 52 49 53C49 55 49 56 50 56C51 56 51 55 51 53C52 52 52 52 52 51C52 50 51 49 50 49z"
  />
  <path style="fill:none; stroke:#000000; stroke-width:1"
        d="M40 44H60"
  />
 </g>
</svg>
